build/assets/images/svg/icons/delivery/coins.svg

<svg width="52" height="52" viewBox="0 0 52 52" fill="none" xmlns="http://www.w3.org/2000/svg">
<rect width="52" height="52" rx="26" fill="#F4F7FB"/>
<path fill-rule="evenodd" clip-rule="evenodd" d="M28.6668 19.96V18.6665C28.6668 16.7639 27.4574 15.232 25.9014 14.2418C24.3296 13.2415 22.2396 12.6665 20.0002 12.6665C17.7607 12.6665 15.6707 13.2415 14.0989 14.2418C12.5429 15.232 11.3335 16.7639 11.3335 18.6665V33.3332C11.3335 35.2358 12.5429 36.7677 14.0989 37.7579C15.6707 38.7581 17.7607 39.3332 20.0002 39.3332C22.2396 39.3332 24.3296 38.7581 25.9014 37.7579C26.6103 37.3068 27.2472 36.7433 27.7306 36.0836C28.1157 36.8787 28.748 37.5417 29.4788 38.039C30.6927 38.8652 32.2953 39.3332 34.0002 39.3332C35.705 39.3332 37.3076 38.8652 38.5216 38.039C39.7286 37.2176 40.6668 35.9442 40.6668 34.3702V22.9628C40.6668 21.3888 39.7286 20.1154 38.5216 19.294C37.3076 18.4678 35.705 17.9998 34.0002 17.9998C32.2953 17.9998 30.6927 18.4678 29.4788 19.294C29.1896 19.4908 28.9159 19.7135 28.6668 19.96ZM14.0002 18.6665C14.0002 17.9918 14.4324 17.1904 15.5305 16.4916C16.6129 15.8028 18.1895 15.3332 20.0002 15.3332C21.8108 15.3332 23.3874 15.8028 24.4698 16.4916C25.5679 17.1904 26.0002 17.9918 26.0002 18.6665C26.0002 19.3412 25.5679 20.1426 24.4698 20.8415C23.3874 21.5302 21.8108 21.9998 20.0002 21.9998C18.1895 21.9998 16.6129 21.5302 15.5305 20.8415C14.4324 20.1426 14.0002 19.3412 14.0002 18.6665ZM25.9014 23.0912C25.9345 23.0702 25.9674 23.0489 26.0002 23.0274V23.9998C26.0002 24.6745 25.5679 25.476 24.4698 26.1748C23.3874 26.8635 21.8108 27.3332 20.0002 27.3332C18.1895 27.3332 16.6129 26.8635 15.5305 26.1748C14.4324 25.476 14.0002 24.6745 14.0002 23.9998V23.0274C14.0329 23.0489 14.0658 23.0702 14.0989 23.0912C15.6707 24.0915 17.7607 24.6665 20.0002 24.6665C22.2396 24.6665 24.3296 24.0915 25.9014 23.0912ZM25.9014 28.4246C25.9345 28.4035 25.9674 28.3822 26.0002 28.3607V29.3332C26.0002 30.0079 25.5679 30.8093 24.4698 31.5081C23.3874 32.1969 21.8108 32.6665 20.0002 32.6665C18.1895 32.6665 16.6129 32.1969 15.5305 31.5081C14.4324 30.8093 14.0002 30.0079 14.0002 29.3332V28.3607C14.0329 28.3822 14.0658 28.4035 14.0989 28.4246C15.6707 29.4248 17.7607 29.9998 20.0002 29.9998C22.2396 29.9998 24.3296 29.4248 25.9014 28.4246ZM25.9014 33.7579L25.953 33.7248C25.8145 34.305 25.3619 34.9404 24.4698 35.5081C23.3874 36.1969 21.8108 36.6665 20.0002 36.6665C18.1895 36.6665 16.6129 36.1969 15.5305 35.5081C14.6384 34.9404 14.1858 34.305 14.0474 33.7248L14.0989 33.7579C15.6707 34.7581 17.7607 35.3332 20.0002 35.3332C22.2396 35.3332 24.3296 34.7581 25.9014 33.7579ZM30.0002 22.9628C30.0002 22.5322 30.2558 21.9908 30.9791 21.4985C31.6954 21.011 32.7595 20.6665 34.0002 20.6665C35.2408 20.6665 36.3049 21.011 37.0212 21.4985C37.7445 21.9908 38.0002 22.5322 38.0002 22.9628C38.0002 23.3934 37.7445 23.9348 37.0212 24.4271C36.3049 24.9146 35.2408 25.2591 34.0002 25.2591C32.7595 25.2591 31.6954 24.9146 30.9791 24.4271C30.2558 23.9348 30.0002 23.3934 30.0002 22.9628ZM34.0002 27.9258C35.4709 27.9258 36.8655 27.5775 38.0002 26.9515V27.1109C38.0002 27.5415 37.7445 28.083 37.0212 28.5752C36.3049 29.0627 35.2408 29.4072 34.0002 29.4072C32.7595 29.4072 31.6954 29.0627 30.9791 28.5752C30.2558 28.083 30.0002 27.5415 30.0002 27.1109V26.9515C31.1348 27.5775 32.5294 27.9258 34.0002 27.9258ZM34.0002 32.0739C35.4709 32.0739 36.8655 31.7256 38.0002 31.0996V31.2591C38.0002 31.6897 37.7445 32.2311 37.0212 32.7234C36.3049 33.2109 35.2408 33.5554 34.0002 33.5554C32.7595 33.5554 31.6954 33.2109 30.9791 32.7234C30.2558 32.2311 30.0002 31.6897 30.0002 31.2591V31.0996C31.1348 31.7256 32.5294 32.0739 34.0002 32.0739ZM34.0002 36.2221C35.2149 36.2221 36.3777 35.9845 37.385 35.5491C37.2797 35.6452 37.1589 35.7407 37.0212 35.8345C36.3049 36.322 35.2408 36.6665 34.0002 36.6665C32.7595 36.6665 31.6954 36.322 30.9791 35.8345C30.8414 35.7407 30.7206 35.6452 30.6153 35.5491C31.6226 35.9845 32.7854 36.2221 34.0002 36.2221Z" fill="#203686" stroke="#F4F7FB" stroke-width="0.2"/>
</svg>

<svg width="52" height="52" fill="none" xmlns="http://www.w3.org/2000/svg"><rect width="52" height="52" rx="26" fill="#F4F7FB"/><path fill-rule="evenodd" clip-rule="evenodd" d="M28.667 19.96v-1.294c0-1.902-1.21-3.434-2.766-4.424-1.571-1-3.661-1.576-5.9-1.576-2.24 0-4.33.575-5.902 1.576-1.556.99-2.765 2.522-2.765 4.424v14.667c0 1.903 1.209 3.435 2.765 4.425 1.572 1 3.662 1.575 5.901 1.575 2.24 0 4.33-.575 5.901-1.575.71-.451 1.346-1.015 1.83-1.674.385.795 1.017 1.458 1.748 1.955 1.214.826 2.816 1.294 4.521 1.294s3.308-.468 4.522-1.294c1.207-.821 2.145-2.095 2.145-3.669V22.963c0-1.574-.938-2.848-2.145-3.669C37.308 18.468 35.705 18 34 18s-3.307.468-4.521 1.294c-.29.197-.563.42-.812.666zM14 18.666c0-.674.432-1.476 1.53-2.174 1.083-.69 2.66-1.159 4.47-1.159 1.81 0 3.387.47 4.47 1.159 1.098.698 1.53 1.5 1.53 2.174 0 .675-.432 1.477-1.53 2.175C23.387 21.532 21.81 22 20 22c-1.81 0-3.387-.47-4.47-1.159-1.098-.698-1.53-1.5-1.53-2.175zm11.901 4.425c.034-.02.066-.042.1-.064V24c0 .674-.433 1.476-1.531 2.175-1.083.688-2.66 1.158-4.47 1.158-1.81 0-3.387-.47-4.47-1.158C14.432 25.476 14 24.675 14 24v-.973l.099.064c1.572 1 3.662 1.575 5.901 1.575 2.24 0 4.33-.575 5.901-1.575zm0 5.334l.1-.064v.972c0 .675-.433 1.476-1.531 2.175-1.083.689-2.66 1.159-4.47 1.159-1.81 0-3.387-.47-4.47-1.159-1.098-.699-1.53-1.5-1.53-2.175v-.972l.099.064C15.67 29.425 17.76 30 20 30c2.24 0 4.33-.575 5.901-1.575zm0 5.333l.052-.033c-.139.58-.591 1.215-1.483 1.783-1.083.689-2.66 1.158-4.47 1.158-1.81 0-3.387-.47-4.47-1.158-.892-.568-1.344-1.203-1.483-1.783l.052.033c1.572 1 3.662 1.575 5.901 1.575 2.24 0 4.33-.575 5.901-1.575zm4.1-10.795c0-.43.255-.972.978-1.465.716-.487 1.78-.832 3.021-.832 1.24 0 2.305.345 3.021.832.724.493.98 1.034.98 1.465 0 .43-.256.972-.98 1.464-.716.488-1.78.832-3.02.832-1.241 0-2.306-.344-3.022-.832-.723-.492-.979-1.034-.979-1.464zm4 4.963c1.47 0 2.864-.348 4-.974v.159c0 .43-.256.972-.98 1.464-.716.488-1.78.832-3.02.832-1.241 0-2.306-.344-3.022-.832-.723-.492-.979-1.034-.979-1.464v-.16c1.135.627 2.53.975 4 .975zm0 4.148c1.47 0 2.864-.348 4-.974v.16c0 .43-.256.971-.98 1.463-.716.488-1.78.832-3.02.832-1.241 0-2.306-.344-3.022-.832-.723-.492-.979-1.033-.979-1.464v-.16c1.135.627 2.53.975 4 .975zm0 4.148c1.214 0 2.377-.238 3.384-.673a3.267 3.267 0 01-.364.285c-.716.488-1.78.832-3.02.832-1.241 0-2.306-.344-3.022-.831a3.267 3.267 0 01-.364-.286c1.008.435 2.17.673 3.385.673z" fill="#203686" stroke="#F4F7FB" stroke-width=".2"/></svg>
